X: 33678
T: Rambuck's Head, The
R: polka
M: 2/4
K: Dmajor
A/G/|:F3/2G/ AA|BA dd|cd ec|d/c/d/e/ fA/G/|
F3/2G/ AA|BA dd|cd ec|1 d3 A/G/:|2 d3 e||
f2 f3/2f/|gf f2|fe ed|dc BA|f2 f3/2f/|gf f2|ed cB|AG FE|
F3/2G/ AA|BA dd|cd ec|d/c/d/e/ fA/G/|F3/2G/ AA|BA df|fe dc|d4||

